X:154
T: WAR EINST EIN RIESE GOLIATH
N: B0645
O: Europa, Mitteleuropa, Deutschland
R: Kinder - Lied, Sage, religioes
M: 2/4
L: 1/16
K: D
D2 | D3EF2G2 | A2F2D2
A2 | B3AB2c2 | d4z2
d2 | c3BA2G2 | F2E2D2
f2 | e3dc2B2 | A4z2
A2 | B3Ad2A2 | B2B2A2z
G | FGAGF2E2 | D4z2

